modules/zondicons/icons/format-font-size.svg

<svg width="20" height="20" viewBox="0 0 20 20" xmlns="http://www.w3.org/2000/svg"><path d="M16 9h4V7H10v2h4v8h2V9zM8 5h7V3H0v2h6v12h2V5z" fill="#000" fill-rule="evenodd"/></svg>

<?xml version="1.0" encoding="UTF-8" standalone="no"?>
<svg width="20px" height="20px" viewBox="0 0 20 20" version="1.1" xmlns="http://www.w3.org/2000/svg" xmlns:xlink="http://www.w3.org/1999/xlink">
    <!-- Generator: Sketch 3.7.2 (28276) - http://www.bohemiancoding.com/sketch -->
    <title>format-font-size</title>
    <desc>Created with Sketch.</desc>
    <defs></defs>
    <g id="Page-1" stroke="none" stroke-width="1" fill="none" fill-rule="evenodd">
        <g id="format-font-size" fill="#000000">
            <path d="M16,9 L20,9 L20,7 L10,7 L10,9 L14,9 L14,17 L16,17 L16,9 Z M8,5 L15,5 L15,3 L0,3 L0,5 L6,5 L6,17 L8,17 L8,5 Z" id="Combined-Shape"></path>
        </g>
    </g>
</svg>
